src/assets/images/error.svg

<?xml version="1.0" encoding="UTF-8"?>
<svg fill="none" viewBox="0 0 456 456" xmlns="http://www.w3.org/2000/svg">
<g clip-path="url(#a)">
<path d="m227.56 455.11c125.68 0 227.56-101.88 227.56-227.56s-101.88-227.56-227.56-227.56-227.56 101.88-227.56 227.56 101.88 227.56 227.56 227.56z" fill="#E24C4B"/>
<path d="m331.38 331.38c-8.533 8.533-22.756 8.533-31.289 0l-72.533-72.533-72.533 72.533c-8.533 8.533-22.756 8.533-31.289 0s-8.533-22.756 0-31.289l72.533-72.533-72.533-72.533c-8.533-8.533-8.533-22.756 0-31.289s22.756-8.533 31.289 0l72.533 72.533 72.533-72.533c8.533-8.533 22.756-8.533 31.289 0s8.533 22.756 0 31.289l-72.533 72.533 72.533 72.533c8.533 8.533 8.533 22.755 0 31.289z" fill="#fff"/>
</g>
<defs>
<clipPath id="a">
<rect width="455.11" height="455.11" fill="#fff"/>
</clipPath>
</defs>
</svg>

<svg width="456" height="456" viewBox="0 0 456 456" fill="none"
  xmlns="http://www.w3.org/2000/svg">
  <g clip-path="url(#clip0)">
    <path d="M227.556 455.112C353.232 455.112 455.112 353.232 455.112 227.556C455.112 101.88 353.232 0 227.556 0C101.88 0 0 101.88 0 227.556C0 353.232 101.88 455.112 227.556 455.112Z" fill="#E24C4B"/>
    <path d="M331.378 331.378C322.845 339.911 308.622 339.911 300.089 331.378L227.556 258.845L155.023 331.378C146.49 339.911 132.267 339.911 123.734 331.378C115.201 322.845 115.201 308.622 123.734 300.089L196.267 227.556L123.734 155.023C115.201 146.49 115.201 132.267 123.734 123.734C132.267 115.201 146.49 115.201 155.023 123.734L227.556 196.267L300.089 123.734C308.622 115.201 322.845 115.201 331.378 123.734C339.911 132.267 339.911 146.49 331.378 155.023L258.845 227.556L331.378 300.089C339.911 308.622 339.911 322.844 331.378 331.378Z" fill="white"/>
  </g>
  <defs>
    <clipPath id="clip0">
      <rect width="455.111" height="455.111" fill="white"/>
    </clipPath>
  </defs>
</svg>
